apps/web/public/assets/roles/lol-role-support.svg

<svg width="22" height="18" viewBox="0 0 22 18" fill="none" xmlns="http://www.w3.org/2000/svg">
<path d="M10.9611 17.9999L13.9929 15.3817L10.9611 7.36349L7.85156 15.3817L10.9611 17.9999Z" fill="#917444"/>
<path d="M6.84099 10.6364L9.17314 6.1364L7.0742 4.09094H0L6.14134 6.95458L4.58657 8.50913L6.84099 10.6364Z" fill="#917444"/>
<path d="M15.0806 10.6364L12.8262 6.1364L14.9251 4.09094H21.9993L15.858 6.95458L17.4127 8.50913L15.0806 10.6364Z" fill="#917444"/>
<path d="M10.883 4.90909L13.9925 1.63636L12.4377 0H9.32821L7.77344 1.55455L10.883 4.90909Z" fill="#917444"/>
</svg>

<svg xmlns="http://www.w3.org/2000/svg" width="22" height="18" fill="currentColor">
  <path
    d="m10.961 18 3.032-2.618-3.032-8.019-3.11 8.019L10.962 18ZM6.841 10.636l2.332-4.5-2.099-2.045H0l6.141 2.864-1.554 1.554 2.254 2.127ZM15.08 10.636l-2.254-4.5 2.1-2.045h7.073l-6.141 2.864 1.555 1.554-2.332 2.127ZM10.883 4.91l3.11-3.274L12.438 0h-3.11L7.773 1.555l3.11 3.354Z"
  />
</svg>
